new-front/public/bag.svg

<svg fill="none" height="18" viewBox="0 0 18 18" width="18" xmlns="http://www.w3.org/2000/svg"><g stroke="#000" stroke-linecap="round" stroke-linejoin="round"><path d="m14.625 4.5h-11.25c-.31066 0-.5625.25184-.5625.5625v9c0 .3107.25184.5625.5625.5625h11.25c.3107 0 .5625-.2518.5625-.5625v-9c0-.31066-.2518-.5625-.5625-.5625z"/><path d="m6.1875 4.5c0-.74592.29632-1.46129.82376-1.98874.52745-.52744 1.24282-.82376 1.98874-.82376s1.4613.29632 1.9887.82376c.5275.52745.8238 1.24282.8238 1.98874"/></g></svg>

<svg width="18" height="18" viewBox="0 0 18 18" fill="none" xmlns="http://www.w3.org/2000/svg">
    <path d="M14.625 4.5H3.375C3.06434 4.5 2.8125 4.75184 2.8125 5.0625V14.0625C2.8125 14.3732 3.06434 14.625 3.375 14.625H14.625C14.9357 14.625 15.1875 14.3732 15.1875 14.0625V5.0625C15.1875 4.75184 14.9357 4.5 14.625 4.5Z" stroke="black" stroke-linecap="round" stroke-linejoin="round"/>
    <path d="M6.1875 4.5C6.1875 3.75408 6.48382 3.03871 7.01126 2.51126C7.53871 1.98382 8.25408 1.6875 9 1.6875C9.74592 1.6875 10.4613 1.98382 10.9887 2.51126C11.5162 3.03871 11.8125 3.75408 11.8125 4.5" stroke="black" stroke-linecap="round" stroke-linejoin="round"/>
</svg>
